gama.ui.shared/icons_svg/dark/markers/marker.warning.svg

<?xml version="1.0" encoding="UTF-8" standalone="no"?>
<!DOCTYPE svg PUBLIC "-//W3C//DTD SVG 1.1//EN" "http://www.w3.org/Graphics/SVG/1.1/DTD/svg11.dtd">
<svg xmlns="http://www.w3.org/2000/svg" xmlns:xl="http://www.w3.org/1999/xlink" version="1.1" xmlns:dc="http://purl.org/dc/elements/1.1/" viewBox="-753.9828 -3737.405 12 12" width="12" height="12">
  <defs/>
  <g id="SOURCES" stroke-opacity="1" fill="none" stroke="none" fill-opacity="1" stroke-dasharray="none">
    <title>SOURCES</title>
    <g id="SOURCES_New">
      <title>New</title>
      <g id="Group_8259">
        <title>markers/marker.warning</title>
        <g id="Graphic_8261">
          <circle cx="-747.9828" cy="-3731.405" r="5.00000798950937" fill="black"/>
        </g>
        <g id="Graphic_8260">
          <path d="M -747.9828 -3737.405 C -751.3008 -3737.405 -753.9828 -3734.723 -753.9828 -3731.405 C -753.9828 -3728.087 -751.3008 -3725.405 -747.9828 -3725.405 C -744.6648 -3725.405 -741.9828 -3728.087 -741.9828 -3731.405 C -741.9828 -3734.723 -744.6648 -3737.405 -747.9828 -3737.405 Z M -744.9828 -3729.251 L -745.8288 -3728.405 L -747.9828 -3730.559 L -750.1368 -3728.405 L -750.9828 -3729.251 L -748.8288 -3731.405 L -750.9828 -3733.559 L -750.1368 -3734.405 L -747.9828 -3732.251 L -745.8288 -3734.405 L -744.9828 -3733.559 L -747.1368 -3731.405 L -744.9828 -3729.251 Z" fill="#fec700"/>
        </g>
      </g>
    </g>
  </g>
</svg>

<svg height="12" viewBox="-753.983 -3737.405 12 12" width="12" xmlns="http://www.w3.org/2000/svg"><g fill="none"><circle cx="-747.983" cy="-3731.405" fill="#000" r="5"/><path d="m-747.9828-3737.405c-3.318 0-6 2.682-6 6s2.682 6 6 6 6-2.682 6-6-2.682-6-6-6zm3 8.154-.846.846-2.154-2.154-2.154 2.154-.846-.846 2.154-2.154-2.154-2.154.846-.846 2.154 2.154 2.154-2.154.846.846-2.154 2.154z" fill="#fec700"/></g></svg>
